X: 38725
T: Street Player, The
R: reel
M: 4/4
K: Dmajor
|:DFAd f2 fe|dcde fdAF|G2 FG E2 EF|GBAF EA,CE|
FD D2 FAGA|BG G2 Bcdg|fgaf gecd|1 eddc dBAF:|2 eddc d2 Ad||
|:fddc dfaf|gfed cdeg|f2 fa gfed|cAAG A2 EG|
FDA,D FA A2|BG G2 Bcdg|fgaf gecd|1 eddc d2 Ad:|2 eddc d4||

